X:1
T:Leaving It All with Jesus
T:Owen F. Pugh
T:Leaving It All with Jesus
T:Public Domain
T:Public Domain
C:Owen F. Pugh
Z:Public Domain
%%score ( 1 2 ) ( 3 4 )
L:1/8
M:6/8
K:Ab
V:1 treble 
V:2 treble 
V:3 bass 
V:4 bass 
V:1
 E | [EA]2 [EA] [EB]2 [EA]/[EB]/ | [Ec]2 [Ec] [CA]3 | [EA][EG][EA] [EB]2 E | [Ec]3 [Ec]2 E | %5
w: 1.~My|has come to the place|of rest, Leav-|ing it all with Je-|The fear of|
w: 2.~I’ve|the guilt of my wear-|y soul, Leav-|ing it all with Je-|I’ve brought not|
w: 3.~I’m|ing safe in a path|un- known, Leav-|ing it all with Je-|I find the|
w: 4.~O|ed soul, here is heav’n-|ly balm, Leav-|ing it all with Je-|Then change thy|
 [EA]2 [EA] [EB]2 [EA]/[EB]/ | [Ec]2 [_Ge] [Fd]2 [DF] | [CE][Ed][Ec] (BF)[DG] | [DB]3 [CA]3 || %9
w: doth no more mo- lest,|I’m leav- ing it|all with Je- sus. * *||
w: of it, but the whole,|I’m leav- ing it|all with Je- sus. * *||
w: with His bless- ings strown,|I’m leav- ing it|all with Je- sus. * *||
w: to a joy- ous psalm,|In leav- ing it|all with Je- sus. * *||
"^Refrain" [Fd][Fd][Fd] [_Fd]2 [FA] | ([Ec]2 [=D=B]) [Ec]3 | [=D=d][Dc][FB] (Bc)[Ad] | %12
w: |||
w: |||
w: |||
w: |||
 [Ge]3 [Ge]2 E | [EA]2 [EA] [EB]2 [EA]/[EB]/ | [Ec]2 [_Ge] [Fd]2 [DF] | [CE][Ed][Ec] (BF)[DG] | %16
w: ||||
w: ||||
w: ||||
w: ||||
 [DB]3 [CA]2 |] %17
w: |
w: |
w: |
w: |
V:2
 E | x6 | x6 | x5 E | x5 E | x6 | x6 | x3 D2 x | x6 || x6 | x6 | x3 A2 x | x5 E | x6 | x6 | %15
w: heart|||sus;|death|||||||||||
w: brought|||sus;|part|||||||||||
w: walk-|||sus;|path|||||||||||
w: wound-|||sus;|moan|||||||||||
 x3 E2 x | x5 |] %17
w: ||
w: ||
w: ||
w: ||
V:3
 [A,C] | [A,C]2 [A,C] [E,D]2 [E,C]/[E,D]/ | [A,C]2 A, A,3 | [E,C][D,B,][C,A,] [B,,G,]2 [E,G,] | %4
w: ~|~ ~ ~ ~ ~|~ ~ ~|~ ~ ~ ~ ~|
 [A,,A,]3 [A,,A,]2 [A,C] | [A,C]2 [A,C] [E,D]2 [E,C]/[E,D]/ | [A,C]2 [C,A,] [D,A,]2 [D,A,] | %7
w: ~ ~ ~|~ ~ ~ ~ ~|~ ~ ~ ~|
 [E,A,][E,B,][E,A,] [E,G,]2 E, | [E,G,]3 A,3 || [D,A,][D,A,][D,A,] [D,A,]2 [D,A,] | %10
w: ~ ~ ~ ~ ~|ing it|with Je- sus, Leav- ing|
 [A,,A,]3 [A,,A,]3 | [B,,A,][B,,A,][B,,A,] [=D,B,]2 [B,,B,] | [E,B,]3 [E,B,]2 [E,D] | %13
w: it all|with Je- sus; My peace|to- day, as|
 [A,C]2 [A,C] [E,D]2 [E,C]/[E,D]/ | [A,C]2 [C,A,] [D,A,]2 [D,A,] | [E,A,][E,B,][E,A,] [E,G,]2 E, | %16
w: on yes- ter- day, Is|leav- ing it all|with Je- sus. * *|
 [E,G,]3 [A,,A,]2 |] %17
w: |
V:4
 x | x6 | x2 A, A,3 | x6 | x6 | x6 | x6 | x5 E, | x3 A,3 || x6 | x6 | x6 | x6 | x6 | x6 | x5 E, | %16
w: ||~ ~|||||Leav-|all||||||||
 x5 |] %17
w: |

